X:51.1
T: Kost ar c'hoad I
R:Breton
S: from Anna Pack, Dec 2022
L: 1/8
M:4/4
G:don't play
P:don't play: 2x (FW)
K: F
|:(3cde f>g a>b a2|(3gag f>e f2f2:|
|:ac' c'>b g>b a2|(3fga f2fe fg|c'2b2gba2|(3gag f>e f2f2:|

